X: 17906
T: Hour Before Dawn, The
R: reel
M: 4/4
K: Dmajor
|:dBBA B2 Bc|dBBA FFEA|D3 D EAAF|(3Bcd ec decd|
BFBc dBde|f2 ed (3Bcd BA|GDAG FD D2|edcA edef:|
|:G3 A B3 c|dcde a2 ab|f2 fc decd|ecde fdBA|
[1G3 A B3 c|dcde a2 ab|f2 fc decd|ecde fdBA:|
[2g2 fd ef e2|eddc ba(3bcd|G2 fd ef a2|abfa fedc||

